X:181
T:We Know Thee Who Thou Art
%%stretchlast false
M:4/4
L:1/4
K:C clef=C1
"^I"[C,CEG] "^IV"[F,CFA] "^I¹"[E,CG] "^vii°¹"[D,F,FB] | "^I"[C,G,Ec] "^V7¹"[B,,G,DF]3 | "^I"[C,G,CE] "^ii7¹"[F,A,CD] "^V"[F,G,B,A] "^I¹"[E,CG] | "^IV"[F,A,CA] "^V"[G,B,D]3 | "^I"[C,G,CE] "^IVmaj7²"[C,F,A,E] "^ii7³"[C,F,A,D] "^I"[C,E,G,C] | [C,G,Ec] "^vii°¹"[D,F,DB]/ "^iii7"[E,G,DB]/ "^IV"[F,A,CA]/ "^viiø7²"[F,B,DA]/ "^I"[C,CEG] | "^I¹"[E,G,C] "^ii7"[D,F,CF]/ [D,F,B,F]/ "^I"[C,G,CE] "^ii7¹"[F,,A,CD] | "^V"[G,,G,B,D]/ "^V7"[G,,F,B,D]/ "^I"[C,E,C]3 |]
